svgs/regular/road-barrier.svg

<svg xmlns="http://www.w3.org/2000/svg" viewBox="0 0 640 512"><!--! Font Awesome Pro 6.6.0 by @fontawesome - https://fontawesome.com License - https://fontawesome.com/license (Commercial License) Copyright 2024 Fonticons, Inc. --><path d="M24 32c13.3 0 24 10.7 24 24l0 24 544 0 0-24c0-13.3 10.7-24 24-24s24 10.7 24 24l0 24 0 48 0 128 0 48 0 152c0 13.3-10.7 24-24 24s-24-10.7-24-24l0-152L48 304l0 152c0 13.3-10.7 24-24 24s-24-10.7-24-24L0 56C0 42.7 10.7 32 24 32zM592 256l0-128-21.2 0-64 128 85.2 0zM48 256l21.2 0 64-128L48 128l0 128zM389.2 128l-74.3 0-64 128 74.3 0 64-128zM378.8 256l74.3 0 64-128-74.3 0-64 128zm-192-128l-64 128 74.3 0 64-128-74.3 0z"/></svg>

<svg xmlns="http://www.w3.org/2000/svg" viewBox="0 0 640 512"><!--! Font Awesome Pro 6.4.0 by @fontawesome - https://fontawesome.com License - https://fontawesome.com/license (Commercial License) Copyright 2023 Fonticons, Inc. --><path d="M24 32c13.3 0 24 10.7 24 24V80H592V56c0-13.3 10.7-24 24-24s24 10.7 24 24V80v48V256v48V456c0 13.3-10.7 24-24 24s-24-10.7-24-24V304H48V456c0 13.3-10.7 24-24 24s-24-10.7-24-24V56C0 42.7 10.7 32 24 32zM592 256V128H570.8l-64 128H592zM48 256H69.2l64-128H48V256zM389.2 128H314.8l-64 128h74.3l64-128zM378.8 256h74.3l64-128H442.8l-64 128zm-192-128l-64 128h74.3l64-128H186.8z"/></svg>
